X: 72
T: THE LITTLE RED LARK
B: O'Neill's 72
M: 6/8
L: 1/8
Z: Transcribed by John Chambers <jc@trillian.mit.edu>
N: "Gracefully"
K:G
D \
|G2A GEF|G2A Bge|dBG BAG|E3 GF2D|
|.G.A.G .G.E.F|G2A Bge|dBG BAG|G3- G2||
||d \
|gfg edB|gfe dge|dBG BAG|E3 GF2D|
|.G.A.G .G.E.F|G2A Bge|dBG BAG|G3- G2||
